packages/ffe-icons/icons/open/500/sm/keyboard_external_input.svg

<svg xmlns="http://www.w3.org/2000/svg" height="20" viewBox="0 -960 960 960" width="20"><path d="M168-276v-408 408Zm0 83q-34.483 0-58.741-24.259-24.26-24.258-24.26-58.741v-408q0-34.483 24.26-58.741Q133.517-767 168-767h624q34.483 0 58.741 24.259Q875-718.483 875-684v187.935q0 20.869-12.924 31.185-12.924 10.315-28.576 10.315-15.413 0-28.456-10.435Q792-475.435 792-496.304V-684H168v408h269.065q17.452 0 29.476 11.963 12.024 11.964 12.024 29.327 0 17.362-12.024 29.536Q454.517-193 437.065-193H168Zm203.932-131h107.797Q495-324 505.5-334.289q10.5-10.29 10.5-25.5Q516-375 505.669-385.5q-10.33-10.5-25.601-10.5H372.271Q357-396 346.5-385.711q-10.5 10.29-10.5 25.5Q336-345 346.331-334.5q10.33 10.5 25.601 10.5Zm344.024 131H615.037q-17.422 0-29.425-11.963-12.003-11.964-12.003-29.326 0-17.363 12.003-29.537T615.037-276h100.919l-23.391-23.391q-12.435-12.435-11.815-28.728.62-16.294 13.533-29.207Q706.957-370 723.609-370t29.326 12.674l93.241 93.899q12.433 12.536 12.433 29.109t-12.674 28.883l-94 93.761Q739.261-99 722.87-99.619q-16.392-.62-29.544-13.772-12.435-12.435-12.435-28.609t12.435-28.609L715.956-193ZM275.789-552Q291-552 301.5-562.289q10.5-10.29 10.5-25.5Q312-603 301.711-613.5q-10.29-10.5-25.5-10.5Q261-624 250.5-613.711q-10.5 10.29-10.5 25.5Q240-573 250.289-562.5q10.29 10.5 25.5 10.5Zm102 0Q393-552 403.5-562.289q10.5-10.29 10.5-25.5Q414-603 403.711-613.5q-10.29-10.5-25.5-10.5Q363-624 352.5-613.711q-10.5 10.29-10.5 25.5Q342-573 352.289-562.5q10.29 10.5 25.5 10.5Zm102 0Q495-552 505.5-562.289q10.5-10.29 10.5-25.5Q516-603 505.711-613.5q-10.29-10.5-25.5-10.5Q465-624 454.5-613.711q-10.5 10.29-10.5 25.5Q444-573 454.289-562.5q10.29 10.5 25.5 10.5Zm102 0Q597-552 607.5-562.289q10.5-10.29 10.5-25.5Q618-603 607.711-613.5q-10.29-10.5-25.5-10.5Q567-624 556.5-613.711q-10.5 10.29-10.5 25.5Q546-573 556.289-562.5q10.29 10.5 25.5 10.5Zm102 0Q699-552 709.5-562.289q10.5-10.29 10.5-25.5Q720-603 709.711-613.5q-10.29-10.5-25.5-10.5Q669-624 658.5-613.711q-10.5 10.29-10.5 25.5Q648-573 658.289-562.5q10.29 10.5 25.5 10.5Zm-408 96Q291-456 301.5-466.289q10.5-10.29 10.5-25.5Q312-507 301.711-517.5q-10.29-10.5-25.5-10.5Q261-528 250.5-517.711q-10.5 10.29-10.5 25.5Q240-477 250.289-466.5q10.29 10.5 25.5 10.5Zm102 0Q393-456 403.5-466.289q10.5-10.29 10.5-25.5Q414-507 403.711-517.5q-10.29-10.5-25.5-10.5Q363-528 352.5-517.711q-10.5 10.29-10.5 25.5Q342-477 352.289-466.5q10.29 10.5 25.5 10.5Zm102 0Q495-456 505.5-466.289q10.5-10.29 10.5-25.5Q516-507 505.711-517.5q-10.29-10.5-25.5-10.5Q465-528 454.5-517.711q-10.5 10.29-10.5 25.5Q444-477 454.289-466.5q10.29 10.5 25.5 10.5ZM582-456q25.87 0 30.935-15.435Q618-486.87 618-492q0-15.3-10.289-25.65-10.29-10.35-25.5-10.35Q567-528 556.5-517.711q-10.5 10.29-10.5 25.5 0 14.733 10.111 25.472T582-456Zm66-36.211Q648-477 658.289-466.5q10.29 10.5 25.5 10.5Q699-456 709.5-466.35 720-476.7 720-492v4.261V-492q0-15.3-10.289-25.65-10.29-10.35-25.5-10.35Q669-528 658.5-517.711q-10.5 10.29-10.5 25.5Z"/></svg>

<svg xmlns="http://www.w3.org/2000/svg" height="20" viewBox="0 -960 960 960" width="20"><path d="M168-276v-408 408Zm0 83q-34.48 0-58.74-24.26Q85-241.52 85-276v-408q0-34.48 24.26-58.74Q133.52-767 168-767h624q34.48 0 58.74 24.26Q875-718.48 875-684v187.93q0 20.87-12.92 31.19-12.93 10.31-28.58 10.31-15.41 0-28.46-10.43Q792-475.43 792-496.3V-684H168v408h269.07q17.45 0 29.47 11.96 12.03 11.97 12.03 29.33t-12.03 29.54Q454.52-193 437.07-193H168Zm203.93-131h107.8q15.27 0 25.77-10.29t10.5-25.5q0-15.21-10.33-25.71t-25.6-10.5h-107.8q-15.27 0-25.77 10.29t-10.5 25.5q0 15.21 10.33 25.71t25.6 10.5Zm344.03 131H615.04q-17.42 0-29.43-11.96-12-11.97-12-29.33t12-29.54Q597.62-276 615.04-276h100.92l-23.39-23.39q-12.44-12.44-11.82-28.73.62-16.29 13.53-29.21Q706.96-370 723.61-370t29.32 12.67l93.25 93.9q12.43 12.54 12.43 29.11 0 16.58-12.68 28.89l-94 93.76Q739.26-99 722.87-99.62q-16.39-.62-29.54-13.77-12.44-12.44-12.44-28.61t12.44-28.61L715.96-193ZM275.79-552q15.21 0 25.71-10.29t10.5-25.5q0-15.21-10.29-25.71t-25.5-10.5q-15.21 0-25.71 10.29t-10.5 25.5q0 15.21 10.29 25.71t25.5 10.5Zm102 0q15.21 0 25.71-10.29t10.5-25.5q0-15.21-10.29-25.71t-25.5-10.5q-15.21 0-25.71 10.29t-10.5 25.5q0 15.21 10.29 25.71t25.5 10.5Zm102 0q15.21 0 25.71-10.29t10.5-25.5q0-15.21-10.29-25.71t-25.5-10.5q-15.21 0-25.71 10.29t-10.5 25.5q0 15.21 10.29 25.71t25.5 10.5Zm102 0q15.21 0 25.71-10.29t10.5-25.5q0-15.21-10.29-25.71t-25.5-10.5q-15.21 0-25.71 10.29t-10.5 25.5q0 15.21 10.29 25.71t25.5 10.5Zm102 0q15.21 0 25.71-10.29t10.5-25.5q0-15.21-10.29-25.71t-25.5-10.5q-15.21 0-25.71 10.29t-10.5 25.5q0 15.21 10.29 25.71t25.5 10.5Zm-408 96q15.21 0 25.71-10.29t10.5-25.5q0-15.21-10.29-25.71t-25.5-10.5q-15.21 0-25.71 10.29t-10.5 25.5q0 15.21 10.29 25.71t25.5 10.5Zm102 0q15.21 0 25.71-10.29t10.5-25.5q0-15.21-10.29-25.71t-25.5-10.5q-15.21 0-25.71 10.29t-10.5 25.5q0 15.21 10.29 25.71t25.5 10.5Zm102 0q15.21 0 25.71-10.29t10.5-25.5q0-15.21-10.29-25.71t-25.5-10.5q-15.21 0-25.71 10.29t-10.5 25.5q0 15.21 10.29 25.71t25.5 10.5ZM582-456q25.87 0 30.93-15.43Q618-486.87 618-492q0-15.3-10.29-25.65Q597.42-528 582.21-528t-25.71 10.29q-10.5 10.29-10.5 25.5 0 14.73 10.11 25.47Q566.22-456 582-456Zm66-36.21q0 15.21 10.29 25.71t25.5 10.5q15.21 0 25.71-10.35T720-492v4.26-4.26q0-15.3-10.29-25.65Q699.42-528 684.21-528t-25.71 10.29q-10.5 10.29-10.5 25.5Z"/></svg>
